assets/logos/AR/cash4evening.svg

<svg width="781" height="216" viewBox="0 0 781 216" fill="none" xmlns="http://www.w3.org/2000/svg">
<path d="M678.93 205.65C723.665 205.65 759.93 169.385 759.93 124.65C759.93 79.9149 723.665 43.65 678.93 43.65C634.195 43.65 597.93 79.9149 597.93 124.65C597.93 169.385 634.195 205.65 678.93 205.65Z" fill="url(#paint0_linear_23_19)"/>
<path d="M675.93 205.65C719.008 205.65 753.93 170.057 753.93 126.15C753.93 82.2434 719.008 46.65 675.93 46.65C632.852 46.65 597.93 82.2434 597.93 126.15C597.93 170.057 632.852 205.65 675.93 205.65Z" fill="url(#paint1_linear_23_19)"/>
<path d="M109.1 131.31C105.5 133.76 102.35 136.42 98.78 138.25C88.64 143.41 78.4 146.89 66.39 144.02C57.39 141.87 51.13 136.76 44.94 130.84C36.68 114.84 36.51 98.48 43 81.89C44.0986 81.1212 45.1052 80.2287 46 79.23C55.26 66.08 68.09 61.89 84.15 64.88C92.67 66.48 98.92 71.22 103.92 74.78C112.07 66.78 119.6 59.33 127.54 51.49C117.83 41.08 105.43 34.8 90.37 31.89C70.26 28 51.64 30.83 34.21 40.76C19.05 49.39 8.94 62.3 5 79.53C-1.45 91.32 -0.859997 112.06 2.36 125.33C3.18381 128.052 4.16548 130.723 5.3 133.33C8.13298 145.022 15.0035 155.339 24.7 162.46C48.98 180.64 75.9 182.21 103.79 173.8C114.04 170.71 124.02 165.62 130.51 155.71C123.21 147.43 116.25 139.49 109.1 131.31Z" fill="url(#paint2_linear_23_19)"/>
<path d="M391.68 94.31C385.22 91.56 378.28 89.87 371.47 88.06C361.06 85.29 343.93 84 339.88 81.31C336.88 79.31 336.18 74.25 337.2 70.74C338.34 66.81 342.08 64.74 344.59 63.74C356.93 59 375.48 62.89 389.41 71.65L408.65 45.74C406.766 44.9794 404.938 44.0872 403.18 43.07C390.45 34.23 375.82 31.33 360.81 30.46C354.09 30.07 347.26 31.56 340.49 32.31C327.42 33.74 315.84 38.75 307.58 48.94C299.32 59.13 295.93 75 301.27 89.81C306.27 103.72 317.41 111.34 331.27 114.67C340.43 116.87 349.92 117.9 359.27 118.96C371.1 120.3 377.57 125.42 378.81 135.22C373.26 144.46 363.81 145.93 354.66 145.28C340.23 144.28 326.43 140.33 315.32 129.19L295 154C304.43 164.67 314.5 172.13 327.25 175.5C347.35 180.83 367.46 180.63 386.96 173.43C403.47 167.34 414.89 156.31 416.27 137.61C419.66 117.82 408 101.24 391.68 94.31Z" fill="url(#paint3_linear_23_19)"/>
<path d="M274.76 129.4C267.32 112.847 259.877 96.3 252.43 79.76C250.36 74.44 248.43 69.07 246.18 63.82C241.71 53.31 237.08 42.82 232.72 32.87H194C190.37 40.87 186.61 48.75 183.17 56.78C179.06 66.39 175.22 76.12 171.26 85.78C167.26 94.21 163 102.56 159.18 111.08C156.58 116.89 154.54 122.95 152.25 128.9C144.38 143.35 138.31 158.56 131.81 174.07H172.55L181.23 152.07H244.4C247.4 159.62 250.4 167.07 253.5 174.61C260.57 174.61 267.11 174.61 273.66 174.61C280.37 174.61 287.11 174.82 294.78 174.37L274.76 129.4ZM194.76 118.27L204.76 90.19L213 72.86L217.36 81.86C221.73 93.69 226.11 105.52 230.82 118.28L194.76 118.27Z" fill="url(#paint4_linear_23_19)"/>
<path d="M516.44 83.93L515.44 87.4H465C464.69 85.87 464.49 84.87 464.29 83.87V34.93H427.08V83.93L427.15 127.26V174H464.25V127.2C464.55 125.29 464.86 123.38 465.13 121.66H515.77C516.05 124.66 516.28 126.96 516.51 129.32V174.69C523.28 174.69 529.4 174.87 535.51 174.64C541.62 174.41 547.71 175.74 553.51 173.76V129.28V83.89V34.94H516.41L516.44 83.93Z" fill="url(#paint5_linear_23_19)"/>
<path d="M672.93 216C732.577 216 780.93 167.647 780.93 108C780.93 48.3532 732.577 0 672.93 0C613.283 0 564.93 48.3532 564.93 108C564.93 167.647 613.283 216 672.93 216Z" fill="url(#paint6_radial_23_19)"/>
<path d="M678.93 206.15C662.811 206.15 647.054 201.37 633.651 192.415C620.248 183.459 609.802 170.731 603.634 155.839C597.465 140.947 595.851 124.56 598.996 108.75C602.141 92.9407 609.903 78.4188 621.301 67.0208C632.699 55.6228 647.221 47.8607 663.03 44.716C678.84 41.5713 695.227 43.1853 710.119 49.3538C725.011 55.5224 737.739 65.9684 746.695 79.371C755.65 92.7736 760.43 108.531 760.43 124.65C760.406 146.258 751.812 166.974 736.533 182.253C721.254 197.532 700.538 206.126 678.93 206.15ZM678.93 44.15C663.009 44.15 647.445 48.8712 634.207 57.7167C620.968 66.5622 610.651 79.1345 604.558 93.844C598.465 108.553 596.871 124.739 599.977 140.355C603.083 155.97 610.75 170.314 622.008 181.572C633.266 192.83 647.61 200.497 663.225 203.603C678.841 206.709 695.027 205.115 709.736 199.022C724.445 192.929 737.018 182.612 745.863 169.373C754.709 156.135 759.43 140.571 759.43 124.65C759.406 103.307 750.917 82.8457 735.826 67.7542C720.734 52.6627 700.273 44.1738 678.93 44.15Z" fill="white"/>
<path d="M673.36 200.78C715.096 200.78 748.93 166.297 748.93 123.76C748.93 81.223 715.096 46.74 673.36 46.74C631.624 46.74 597.79 81.223 597.79 123.76C597.79 166.297 631.624 200.78 673.36 200.78Z" fill="url(#paint7_linear_23_19)"/>
<path d="M624 129.52C639.49 116.52 684.92 78.52 684.92 78.52L711.52 82.04C711.52 82.04 708.83 101.15 707.86 108.2C706.8 115.92 705.78 123.64 704.75 131.35C704.17 134.35 703.6 137.35 703.03 140.28C703.63 140.71 704.12 141.37 704.69 141.45C709.63 142.1 713.54 143 713.54 143L710.3 164.9L699.5 163.49L697.56 179.49L670.56 176.22L672.89 158.89C672.89 158.89 664.33 157.65 660.3 157.03C649.46 155.37 638.63 153.54 627.74 152.3C623.89 151.87 623.19 150.3 623.36 147.06C623.72 141.22 623.84 135.36 624 129.52ZM653.2 134C661.28 135.34 667.2 136.48 673.2 137.2C674.45 137.35 676.93 136.09 677.07 135.2C678.22 128.11 678.94 120.96 680.01 112.05C670.52 119.85 662.66 126.29 653.2 134Z" fill="#FDFEFD"/>
<defs>
<linearGradient id="paint0_linear_23_19" x1="678.93" y1="205.65" x2="678.93" y2="43.65" gradientUnits="userSpaceOnUse">
<stop stop-color="#CDDD50"/>
<stop offset="0.11" stop-color="#DDE88A"/>
<stop offset="0.23" stop-color="#ECF2BC"/>
<stop offset="0.33" stop-color="#F6F9E0"/>
<stop offset="0.41" stop-color="#FDFDF7"/>
<stop offset="0.46" stop-color="white"/>
<stop offset="0.53" stop-color="#FEFEFA"/>
<stop offset="0.61" stop-color="#F9FBEB"/>
<stop offset="0.7" stop-color="#F2F6D3"/>
<stop offset="0.8" stop-color="#E9F0B1"/>
<stop offset="0.9" stop-color="#DCE785"/>
<stop offset="1" stop-color="#CDDD50"/>
</linearGradient>
<linearGradient id="paint1_linear_23_19" x1="675.93" y1="205.65" x2="675.93" y2="46.65" gradientUnits="userSpaceOnUse">
<stop stop-color="white"/>
<stop offset="0.0001" stop-color="#F3FBFE"/>
<stop offset="0.25" stop-color="#D4E79D"/>
<stop offset="0.46" stop-color="#D1E595"/>
<stop offset="0.71" stop-color="#87C24F"/>
<stop offset="1" stop-color="#87C350"/>
</linearGradient>
<linearGradient id="paint2_linear_23_19" x1="65.25" y1="178.74" x2="65.25" y2="30.21" gradientUnits="userSpaceOnUse">
<stop stop-color="#7EBF51"/>
<stop offset="1" stop-color="#BAD644"/>
</linearGradient>
<linearGradient id="paint3_linear_23_19" x1="355.96" y1="179.15" x2="355.96" y2="30.39" gradientUnits="userSpaceOnUse">
<stop stop-color="#7EBF51"/>
<stop offset="1" stop-color="#BAD644"/>
</linearGradient>
<linearGradient id="paint4_linear_23_19" x1="213.29" y1="174.67" x2="213.29" y2="32.87" gradientUnits="userSpaceOnUse">
<stop stop-color="#7EBF51"/>
<stop offset="1" stop-color="#BAD644"/>
</linearGradient>
<linearGradient id="paint5_linear_23_19" x1="490.31" y1="174.87" x2="490.31" y2="34.93" gradientUnits="userSpaceOnUse">
<stop stop-color="#7EBF51"/>
<stop offset="1" stop-color="#BAD644"/>
</linearGradient>
<radialGradient id="paint6_radial_23_19" cx="0" cy="0" r="1" gradientUnits="userSpaceOnUse" gradientTransform="translate(672.93 108) scale(108)">
<stop stop-color="white"/>
<stop offset="0.35" stop-color="#FEFFFD"/>
<stop offset="0.5" stop-color="#FBFDF6"/>
<stop offset="0.62" stop-color="#F6FAE9"/>
<stop offset="0.71" stop-color="#EEF5D8"/>
<stop offset="0.79" stop-color="#E4F0C0"/>
<stop offset="0.87" stop-color="#D7E9A4"/>
<stop offset="0.93" stop-color="#C9E082"/>
<stop offset="0.99" stop-color="#B8D75C"/>
<stop offset="1" stop-color="#B6D657"/>
</radialGradient>
<linearGradient id="paint7_linear_23_19" x1="673.36" y1="200.78" x2="673.36" y2="46.74" gradientUnits="userSpaceOnUse">
<stop stop-color="#7FBF51"/>
<stop offset="0.14" stop-color="#8CC44E"/>
<stop offset="0.42" stop-color="#9FCB4A"/>
<stop offset="0.7" stop-color="#AAD048"/>
<stop offset="1" stop-color="#AED147"/>
</linearGradient>
</defs>
</svg>

<svg xmlns="http://www.w3.org/2000/svg" xmlns:xlink="http://www.w3.org/1999/xlink" viewBox="0 0 780.93 216"><defs><style>.cls-1{fill:url(#linear-gradient);}.cls-2{fill:url(#linear-gradient-2);}.cls-3{fill:none;}.cls-4{fill:url(#linear-gradient-3);}.cls-5{fill:url(#linear-gradient-4);}.cls-6{fill:url(#radial-gradient);}.cls-7{fill:url(#New_Gradient_Swatch_2);}.cls-8{fill:#fff;}.cls-9{fill:url(#New_Gradient_Swatch_3);}.cls-10{fill:url(#linear-gradient-5);}.cls-11{fill:#fdfefd;}</style><linearGradient id="linear-gradient" x1="65.25" y1="178.74" x2="65.25" y2="30.21" gradientUnits="userSpaceOnUse"><stop offset="0" stop-color="#7ebf51"/><stop offset="1" stop-color="#bad644"/></linearGradient><linearGradient id="linear-gradient-2" x1="355.96" y1="179.15" x2="355.96" y2="30.39" xlink:href="#linear-gradient"/><linearGradient id="linear-gradient-3" x1="213.29" y1="174.67" x2="213.29" y2="32.87" xlink:href="#linear-gradient"/><linearGradient id="linear-gradient-4" x1="490.31" y1="174.87" x2="490.31" y2="34.93" xlink:href="#linear-gradient"/><radialGradient id="radial-gradient" cx="672.93" cy="108" r="108" gradientUnits="userSpaceOnUse"><stop offset="0" stop-color="#fff"/><stop offset="0.35" stop-color="#fefffd"/><stop offset="0.5" stop-color="#fbfdf6"/><stop offset="0.62" stop-color="#f6fae9"/><stop offset="0.71" stop-color="#eef5d8"/><stop offset="0.79" stop-color="#e4f0c0"/><stop offset="0.87" stop-color="#d7e9a4"/><stop offset="0.93" stop-color="#c9e082"/><stop offset="0.99" stop-color="#b8d75c"/><stop offset="1" stop-color="#b6d657"/></radialGradient><linearGradient id="New_Gradient_Swatch_2" x1="678.93" y1="205.65" x2="678.93" y2="43.65" gradientUnits="userSpaceOnUse"><stop offset="0" stop-color="#cddd50"/><stop offset="0.11" stop-color="#dde88a"/><stop offset="0.23" stop-color="#ecf2bc"/><stop offset="0.33" stop-color="#f6f9e0"/><stop offset="0.41" stop-color="#fdfdf7"/><stop offset="0.46" stop-color="#fff"/><stop offset="0.53" stop-color="#fefefa"/><stop offset="0.61" stop-color="#f9fbeb"/><stop offset="0.7" stop-color="#f2f6d3"/><stop offset="0.8" stop-color="#e9f0b1"/><stop offset="0.9" stop-color="#dce785"/><stop offset="1" stop-color="#cddd50"/></linearGradient><linearGradient id="New_Gradient_Swatch_3" x1="675.93" y1="205.65" x2="675.93" y2="46.65" gradientUnits="userSpaceOnUse"><stop offset="0" stop-color="#fff"/><stop offset="0.09" stop-color="#f3fbfe"/><stop offset="0.25" stop-color="#d3f2fb"/><stop offset="0.46" stop-color="#a0e2f7"/><stop offset="0.71" stop-color="#58cdf1"/><stop offset="1" stop-color="#00b2ea"/></linearGradient><linearGradient id="linear-gradient-5" x1="673.36" y1="200.78" x2="673.36" y2="46.74" gradientUnits="userSpaceOnUse"><stop offset="0" stop-color="#7fbf51"/><stop offset="0.14" stop-color="#8cc44e"/><stop offset="0.42" stop-color="#9fcb4a"/><stop offset="0.7" stop-color="#aad048"/><stop offset="1" stop-color="#aed147"/></linearGradient></defs><g id="Layer_2" data-name="Layer 2"><g id="Layer_1-2" data-name="Layer 1"><path class="cls-1" d="M109.1,131.31c-3.6,2.45-6.75,5.11-10.32,6.94-10.14,5.16-20.38,8.64-32.39,5.77-9-2.15-15.26-7.26-21.45-13.18-8.26-16-8.43-32.36-1.94-48.95a17.5,17.5,0,0,0,3-2.66c9.26-13.15,22.09-17.34,38.15-14.35,8.52,1.6,14.77,6.34,19.77,9.9,8.15-8,15.68-15.45,23.62-23.29-9.71-10.41-22.11-16.69-37.17-19.6C70.26,28,51.64,30.83,34.21,40.76,19.05,49.39,8.94,62.3,5,79.53c-6.45,11.79-5.86,32.53-2.64,45.8a73.21,73.21,0,0,0,2.94,8,51.06,51.06,0,0,0,19.4,29.13c24.28,18.18,51.2,19.75,79.09,11.34,10.25-3.09,20.23-8.18,26.72-18.09C123.21,147.43,116.25,139.49,109.1,131.31Z"/><path class="cls-2" d="M391.68,94.31c-6.46-2.75-13.4-4.44-20.21-6.25-10.41-2.77-27.54-4.06-31.59-6.75-3-2-3.7-7.06-2.68-10.57,1.14-3.93,4.88-6,7.39-7,12.34-4.74,30.89-.85,44.82,7.91l19.24-25.91a43.29,43.29,0,0,1-5.47-2.67c-12.73-8.84-27.36-11.74-42.37-12.61-6.72-.39-13.55,1.1-20.32,1.85-13.07,1.43-24.65,6.44-32.91,16.63S295.93,75,301.27,89.81c5,13.91,16.14,21.53,30,24.86,9.16,2.2,18.65,3.23,28,4.29,11.83,1.34,18.3,6.46,19.54,16.26-5.55,9.24-15,10.71-24.15,10.06-14.43-1-28.23-4.95-39.34-16.09L295,154c9.43,10.67,19.5,18.13,32.25,21.5,20.1,5.33,40.21,5.13,59.71-2.07,16.51-6.09,27.93-17.12,29.31-35.82C419.66,117.82,408,101.24,391.68,94.31Z"/><path class="cls-3" d="M204.79,90.19l-10,28.08h36c-4.71-12.76-9.09-24.59-13.46-36.42l-4.36-9Z"/><path class="cls-3" d="M204.79,90.19l-10,28.08h36c-4.71-12.76-9.09-24.59-13.46-36.42l-4.36-9Z"/><path class="cls-4" d="M274.76,129.4q-11.16-24.83-22.33-49.64c-2.07-5.32-4-10.69-6.25-15.94-4.47-10.51-9.1-21-13.46-30.95H194c-3.63,8-7.39,15.88-10.83,23.91-4.11,9.61-7.95,19.34-11.91,29-4,8.43-8.26,16.78-12.08,25.3-2.6,5.81-4.64,11.87-6.93,17.82-7.87,14.45-13.94,29.66-20.44,45.17h40.74l8.68-22H244.4c3,7.55,6,15,9.1,22.54,7.07,0,13.61,0,20.16,0,6.71,0,13.45.21,21.12-.24Zm-80-11.13,10-28.08L213,72.86l4.36,9c4.37,11.83,8.75,23.66,13.46,36.42Z"/><path class="cls-5" d="M516.44,83.93l-1,3.47H465c-.31-1.53-.51-2.53-.71-3.53V34.93H427.08v49l.07,43.33V174h37.1V127.2c.3-1.91.61-3.82.88-5.54h50.64c.28,3,.51,5.3.74,7.66v45.37c6.77,0,12.89.18,19-.05s12.2,1.1,18-.88V129.28h0l0-45.39V34.94h-37.1Z"/><circle class="cls-6" cx="672.93" cy="108" r="108"/><circle class="cls-7" cx="678.93" cy="124.65" r="81"/><path class="cls-8" d="M678.93,206.15a81.5,81.5,0,1,1,81.5-81.5A81.59,81.59,0,0,1,678.93,206.15Zm0-162a80.5,80.5,0,1,0,80.5,80.5A80.59,80.59,0,0,0,678.93,44.15Z"/><ellipse class="cls-9" cx="675.93" cy="126.15" rx="78" ry="79.5"/><ellipse class="cls-10" cx="673.36" cy="123.76" rx="75.57" ry="77.02"/><path class="cls-11" d="M624,129.52c15.49-13,60.92-51,60.92-51l26.6,3.52s-2.69,19.11-3.66,26.16c-1.06,7.72-2.08,15.44-3.11,23.15-.58,3-1.15,6-1.72,8.93.6.43,1.09,1.09,1.66,1.17,4.94.65,8.85,1.55,8.85,1.55L710.3,164.9l-10.8-1.41-1.94,16-27-3.27,2.33-17.33s-8.56-1.24-12.59-1.86c-10.84-1.66-21.67-3.49-32.56-4.73-3.85-.43-4.55-2-4.38-5.24C623.72,141.22,623.84,135.36,624,129.52ZM653.2,134c8.08,1.34,14,2.48,20,3.2,1.25.15,3.73-1.11,3.87-2,1.15-7.09,1.87-14.24,2.94-23.15C670.52,119.85,662.66,126.29,653.2,134Z"/></g></g></svg>
